src/assets/w4.svg

<svg height="40" viewBox="0 0 80 80" width="40" xmlns="http://www.w3.org/2000/svg"><path d="m24.188 15.779a3.718 3.718 0 1 1 7.435-.001 3.718 3.718 0 0 1 -7.436 0m12.095.001a3.719 3.719 0 1 1 7.437 0 3.719 3.719 0 0 1 -7.437 0m12.096 0a3.718 3.718 0 1 1 7.436 0 3.718 3.718 0 0 1 -7.436 0m-24.19 12.094a3.717 3.717 0 1 1 7.433 0 3.717 3.717 0 0 1 -7.433 0m-12.099 0a3.717 3.717 0 1 1 7.433 0 3.717 3.717 0 0 1 -7.433 0m24.193 0a3.718 3.718 0 1 1 7.436.002 3.718 3.718 0 0 1 -7.436-.002m12.096 0a3.717 3.717 0 1 1 7.434 0 3.717 3.717 0 0 1 -7.434 0m18.149 12.096a3.718 3.718 0 1 1 7.436 0 3.718 3.718 0 0 1 -7.436 0m-12.094 0a3.718 3.718 0 1 1 7.435 0 3.718 3.718 0 0 1 -7.435 0m-12.095 0a3.719 3.719 0 1 1 7.437 0 3.719 3.719 0 0 1 -7.437 0m-12.095 0a3.719 3.719 0 1 1 7.437 0 3.719 3.719 0 0 1 -7.437 0m-12.093 0a3.718 3.718 0 1 1 7.435-.001 3.718 3.718 0 0 1 -7.436 0m-12.094.001a3.718 3.718 0 1 1 7.435 0 3.718 3.718 0 0 1 -7.435 0m54.425-12.096a3.718 3.718 0 1 1 7.437.001 3.718 3.718 0 0 1 -7.437 0m-36.292 24.2a3.718 3.718 0 1 1 7.435 0 3.718 3.718 0 0 1 -7.436 0m-12.098 0a3.718 3.718 0 1 1 7.435 0 3.718 3.718 0 0 1 -7.435 0m24.193 0a3.719 3.719 0 1 1 7.437.001 3.719 3.719 0 0 1 -7.437-.001m12.096 0a3.718 3.718 0 1 1 7.436 0 3.718 3.718 0 0 1 -7.436 0m12.102 0a3.718 3.718 0 1 1 7.436 0 3.718 3.718 0 0 1 -7.436 0m-36.292 12.159a3.718 3.718 0 1 1 7.435 0 3.718 3.718 0 0 1 -7.436 0m12.095 0a3.719 3.719 0 1 1 7.437.001 3.719 3.719 0 0 1 -7.437 0m12.096-.001a3.718 3.718 0 1 1 7.436 0 3.718 3.718 0 0 1 -7.436 0" fill="#27d79d" fill-rule="evenodd"/></svg>

<svg xmlns="http://www.w3.org/2000/svg" width="40" height="40" viewBox="0 0 80 80">
    <g fill="#27D79D" fill-rule="evenodd">
        <path d="M24.188 15.779a3.718 3.718 0 1 1 7.435-.001 3.718 3.718 0 0 1-7.436 0M36.282 15.779a3.719 3.719 0 1 1 7.437 0 3.719 3.719 0 0 1-7.437 0M48.378 15.779a3.718 3.718 0 1 1 7.436 0 3.718 3.718 0 0 1-7.436 0M24.188 27.873a3.717 3.717 0 1 1 7.433 0 3.717 3.717 0 0 1-7.433 0M12.089 27.873a3.717 3.717 0 1 1 7.433 0 3.717 3.717 0 0 1-7.433 0M36.282 27.873a3.718 3.718 0 1 1 7.436.002 3.718 3.718 0 0 1-7.436-.002M48.378 27.873a3.717 3.717 0 1 1 7.434 0 3.717 3.717 0 0 1-7.434 0M66.527 39.969a3.718 3.718 0 1 1 7.436 0 3.718 3.718 0 0 1-7.436 0M54.433 39.969a3.718 3.718 0 1 1 7.435 0 3.718 3.718 0 0 1-7.435 0M42.338 39.969a3.719 3.719 0 1 1 7.437 0 3.719 3.719 0 0 1-7.437 0M30.243 39.969a3.719 3.719 0 1 1 7.437 0 3.719 3.719 0 0 1-7.437 0M18.15 39.969a3.718 3.718 0 1 1 7.435-.001 3.718 3.718 0 0 1-7.436 0M6.055 39.969a3.718 3.718 0 1 1 7.435 0 3.718 3.718 0 0 1-7.435 0M60.48 27.873a3.718 3.718 0 1 1 7.437.001 3.718 3.718 0 0 1-7.437 0M24.188 52.074a3.718 3.718 0 1 1 7.435 0 3.718 3.718 0 0 1-7.436 0M12.089 52.074a3.718 3.718 0 1 1 7.435 0 3.718 3.718 0 0 1-7.435 0M36.282 52.074a3.719 3.719 0 1 1 7.437.001 3.719 3.719 0 0 1-7.437-.001M48.378 52.074a3.718 3.718 0 1 1 7.436 0 3.718 3.718 0 0 1-7.436 0M60.48 52.074a3.718 3.718 0 1 1 7.436 0 3.718 3.718 0 0 1-7.436 0M24.188 64.233a3.718 3.718 0 1 1 7.435 0 3.718 3.718 0 0 1-7.436 0M36.282 64.233a3.719 3.719 0 1 1 7.437.001 3.719 3.719 0 0 1-7.437 0M48.378 64.233a3.718 3.718 0 1 1 7.436 0 3.718 3.718 0 0 1-7.436 0"/>
    </g>
</svg>
